assets/svg/fa-pause-circle.svg

<svg xmlns="http://www.w3.org/2000/svg" width="100%" height="100%" viewBox="0 0 512 512"><path fill="currentColor" d="M256 8c137 0 248 111 248 248s-111 248-248 248-248-111-248-248 111-248 248-248zM256 456c110.5 0 200-89.5 200-200s-89.5-200-200-200-200 89.5-200 200 89.5 200 200 200zM352 176v160c0 8.8-7.2 16-16 16h-48c-8.8 0-16-7.2-16-16v-160c0-8.8 7.2-16 16-16h48c8.8 0 16 7.2 16 16zM240 176v160c0 8.8-7.2 16-16 16h-48c-8.8 0-16-7.2-16-16v-160c0-8.8 7.2-16 16-16h48c8.8 0 16 7.2 16 16z" /></svg>

<svg xmlns="http://www.w3.org/2000/svg" width="100%" height="100%" viewBox="0 0 512 512"><path fill="currentColor" d="M256 8C119 8 8 119 8 256S119 504 256 504 504 393 504 256 393 8 256 8zM256 456C145.5 456 56 366.5 56 256S145.5 56 256 56 456 145.5 456 256 366.5 456 256 456zM352 176V336C352 344.8 344.8 352 336 352H288C279.2 352 272 344.8 272 336V176C272 167.2 279.2 160 288 160H336C344.8 160 352 167.2 352 176zM240 176V336C240 344.8 232.8 352 224 352H176C167.2 352 160 344.8 160 336V176C160 167.2 167.2 160 176 160H224C232.8 160 240 167.2 240 176z" /></svg>
